X: 23332
T: Leigha's
R: reel
M: 4/4
K: Dmajor
DE|:F2AF FDB,D|G2GF GBAG|A2FA dAFA|edcA GFEG|
F2AF FDB,D|GG, (3G,G,G, GBAG|ADFA dAFD|1 B,CB,A, DCDE:|2 B,CB,A, D2dc||
|:B2gB gagB|gfed ceAc|dAFA dBGB|dB~B2 cAdc|
B2gB gagB|gfed efge|aece afdf|1 gfed cAdc:|2 gfef gfed cAGE||

